resources/svg/graph-ql.svg

<svg xmlns="http://www.w3.org/2000/svg" viewBox="0 0 24 24" fill="currentColor"><path fill="currentColor" d="M14.3335126,2.85206923 L19.0436746,5.57156232 C19.1861408,5.42269933 19.3517561,5.29107777 19.5390336,5.18229987 C20.6054985,4.56924218 21.9657203,4.93324518 22.585164,5.99971013 C23.1982217,7.06617507 22.8342187,8.42639682 21.7677537,9.04584053 C21.5354003,9.17940894 21.2887997,9.26659782 21.038849,9.31024708 L21.038849,14.6900096 C21.2856344,14.7341019 21.5290274,14.8207365 21.7585099,14.9526546 C22.8303433,15.5715108 23.1940011,16.9304425 22.5751449,17.9958959 C21.9626686,19.0613494 20.597357,19.4250072 19.5319036,18.8125309 C19.2675499,18.6605671 19.046399,18.4622584 18.8726413,18.2336837 L14.2472483,20.9042339 C14.359389,21.1704807 14.4213527,21.4632106 14.4213527,21.770637 C14.4213527,22.997106 13.4248466,24 12.1919896,24 C10.9591327,24 9.96262662,23.0034939 9.96262662,21.770637 C9.96262662,21.5276826 10.001326,21.293907 10.0729072,21.0751276 L5.39448212,18.3739583 C5.24136397,18.5447862 5.05910975,18.6948998 4.84979559,18.8164775 C3.77694463,19.4295352 2.41672287,19.0655322 1.80366518,17.9990673 C1.19060749,16.9326023 1.55461049,15.5723806 2.62107544,14.9529369 C2.78345801,14.8595912 2.95265101,14.7888975 3.12500248,14.7398866 L3.12500248,9.26050018 C2.95045269,9.21143227 2.77917162,9.14021295 2.61500295,9.04584053 C1.548538,8.43278284 1.184535,7.06617507 1.79759269,5.99971013 C2.41065038,4.93324518 3.77725815,4.56924218 4.8437231,5.18229987 C4.99574654,5.27060092 5.13349582,5.37395472 5.25617553,5.48936462 L10.0208088,2.73842163 C9.98274768,2.57496174 9.96262662,2.40454853 9.96262662,2.22936302 C9.96262662,0.996506107 10.9591327,4.6629367e-14 12.1919896,4.6629367e-14 C13.4248466,4.6629367e-14 14.4213527,0.996506107 14.4213527,2.22936302 C14.4213527,2.44556708 14.3907061,2.6545024 14.3335126,2.85206923 Z M13.8405544,3.73141097 C13.7908242,3.78597435 13.7384158,3.8380524 13.6835353,3.88743909 L19.9624322,14.7624885 C19.9851165,14.7552188 20.0079142,14.7483109 20.0308156,14.7417672 L20.0308156,9.25474103 C19.4969015,9.10015188 19.0200076,8.74749468 18.7216233,8.22843028 C18.396599,7.66302338 18.3462063,7.01504748 18.5295247,6.43866863 L13.8405544,3.73141097 Z M10.5612952,3.75078761 C10.5290822,3.71626947 10.4979547,3.6807246 10.4679668,3.64420691 L5.81568405,6.33028239 C6.04182311,6.93281226 6.00669953,7.62728911 5.66113335,8.22843028 C5.32249418,8.81752134 4.75393127,9.19227671 4.13303588,9.30641503 L4.13303588,14.6916383 C4.16637437,14.6977154 4.19956458,14.7045461 4.23257942,14.7121233 L10.5612952,3.75078761 Z M12.8009687,4.3748119 C12.60746,4.42948073 12.403193,4.45872604 12.1919896,4.45872604 C11.9129003,4.45872604 11.645923,4.40765895 11.3998763,4.31434325 L5.14116232,15.1544358 C5.34676617,15.3211714 5.52618301,15.5275552 5.66720584,15.7703471 C5.76055152,15.9327297 5.83124515,16.1019227 5.8802561,16.2742741 L18.5020915,16.2742741 C18.5510684,16.101457 18.6218024,15.9318817 18.7152686,15.7692896 C18.8216025,15.5843129 18.950628,15.4204894 19.0968364,15.2792547 L12.8009687,4.3748119 Z M13.7498392,20.1747099 L18.4885766,17.4387184 C18.4752977,17.3870257 18.4638585,17.3348529 18.454287,17.2823075 L5.92850441,17.2823075 C5.91572246,17.3524283 5.89960649,17.4218931 5.88022341,17.4904498 L10.5957921,20.2130645 C11.0004395,19.7984186 11.5657199,19.541274 12.1919896,19.541274 C12.7987163,19.541274 13.3482006,19.7826203 13.7498392,20.1747099 Z"/></svg>

<svg viewBox="0 0 24 24"><path fill="currentColor" d="M14.334 2.852l4.71 2.72c.142-.15.308-.28.495-.39A2.234 2.234 0 0 1 22.585 6a2.234 2.234 0 0 1-1.546 3.31v5.38a2.228 2.228 0 1 1-2.166 3.544l-4.626 2.67A2.231 2.231 0 0 1 12.192 24a2.227 2.227 0 0 1-2.12-2.925l-4.678-2.701a2.23 2.23 0 1 1-2.27-3.634l.001-5.48A2.232 2.232 0 0 1 1.798 6a2.232 2.232 0 0 1 3.458-.51l4.765-2.752A2.227 2.227 0 0 1 12.192 0a2.227 2.227 0 0 1 2.142 2.852zm-.493.88c-.05.054-.103.106-.157.155l6.278 10.875l.069-.02V9.255a2.226 2.226 0 0 1-1.501-2.816L13.84 3.73zm-3.28.019a2.237 2.237 0 0 1-.093-.107L5.816 6.33a2.227 2.227 0 0 1-1.683 2.976v5.386l.1.02L10.56 3.751zm2.24.624a2.237 2.237 0 0 1-1.401-.06L5.14 15.154a2.238 2.238 0 0 1 .74 1.12h12.621a2.236 2.236 0 0 1 .595-.996L12.8 4.375zm.949 15.8l4.739-2.736a2.247 2.247 0 0 1-.035-.157H5.93c-.013.07-.03.14-.049.208l4.716 2.723c.404-.415.97-.672 1.596-.672c.607 0 1.156.242 1.558.634z"/></svg>
